X:1
T:Duke of York’s March (in D) JJo.001
S:J.Jones MS,1801,N.Shrops.
A:N Shropshire
Z:Neil Brookes 2006
M:4/4
L:1/8
Q:1/4=120
K:D
D2D>D F2F>F|AFAFD2A2|dAdA dAFD|A2A>AA2z2|!
a2f2d2d2|e2 e>g f2 z a|g3f fdgf|e2e>ee2z2:|!
|:A2A>A Aefg|A2A>A Adfa|gee.e. fd.d.d|ba.g.f f2e2|!
d3f/e/ dABc|cB B4 c/d/e/f/|.g.g.f.f .e.e.d.d|e2e>e e2z2|!
D2D>D F2F>F|.A.F.A.FD2g2|faaf gedc|d2d>d d2:|

